projects/music-startup/img/icn_ig-color.svg

<svg width="25" height="25" viewBox="0 0 25 25" fill="none" xmlns="http://www.w3.org/2000/svg">
<g clip-path="url(#clip0)">
<path d="M16.7358 0.514648H7.73584C3.59434 0.514648 0.23584 3.87315 0.23584 8.01465V17.0146C0.23584 21.1561 3.59434 24.5146 7.73584 24.5146H16.7358C20.8773 24.5146 24.2358 21.1561 24.2358 17.0146V8.01465C24.2358 3.87315 20.8773 0.514648 16.7358 0.514648ZM21.9858 17.0146C21.9858 19.9096 19.6308 22.2646 16.7358 22.2646H7.73584C4.84084 22.2646 2.48584 19.9096 2.48584 17.0146V8.01465C2.48584 5.11965 4.84084 2.76465 7.73584 2.76465H16.7358C19.6308 2.76465 21.9858 5.11965 21.9858 8.01465V17.0146Z" fill="url(#paint0_linear)"/>
<path d="M12.2358 6.51465C8.92234 6.51465 6.23584 9.20115 6.23584 12.5146C6.23584 15.8281 8.92234 18.5146 12.2358 18.5146C15.5493 18.5146 18.2358 15.8281 18.2358 12.5146C18.2358 9.20115 15.5493 6.51465 12.2358 6.51465ZM12.2358 16.2646C10.1688 16.2646 8.48584 14.5816 8.48584 12.5146C8.48584 10.4461 10.1688 8.76465 12.2358 8.76465C14.3028 8.76465 15.9858 10.4461 15.9858 12.5146C15.9858 14.5816 14.3028 16.2646 12.2358 16.2646Z" fill="url(#paint1_linear)"/>
<path d="M18.6857 6.86388C19.1273 6.86388 19.4852 6.50594 19.4852 6.06439C19.4852 5.62284 19.1273 5.26489 18.6857 5.26489C18.2442 5.26489 17.8862 5.62284 17.8862 6.06439C17.8862 6.50594 18.2442 6.86388 18.6857 6.86388Z" fill="url(#paint2_linear)"/>
</g>
<defs>
<linearGradient id="paint0_linear" x1="2.43281" y1="22.3178" x2="22.0389" y2="2.71147" gradientUnits="userSpaceOnUse">
<stop stop-color="#FFC107"/>
<stop offset="0.507" stop-color="#F44336"/>
<stop offset="0.99" stop-color="#9C27B0"/>
</linearGradient>
<linearGradient id="paint1_linear" x1="7.99331" y1="16.7572" x2="16.4784" y2="8.27212" gradientUnits="userSpaceOnUse">
<stop stop-color="#FFC107"/>
<stop offset="0.507" stop-color="#F44336"/>
<stop offset="0.99" stop-color="#9C27B0"/>
</linearGradient>
<linearGradient id="paint2_linear" x1="18.1205" y1="6.62981" x2="19.251" y2="5.49911" gradientUnits="userSpaceOnUse">
<stop stop-color="#FFC107"/>
<stop offset="0.507" stop-color="#F44336"/>
<stop offset="0.99" stop-color="#9C27B0"/>
</linearGradient>
<clipPath id="clip0">
<rect width="24" height="24" fill="white" transform="translate(0.23584 0.514648)"/>
</clipPath>
</defs>
</svg>

<svg width="25" height="25" xmlns="http://www.w3.org/2000/svg">
    <g>
        <path
            d="M16.736.515h-9a7.5 7.5 0 00-7.5 7.5v9a7.5 7.5 0 007.5 7.5h9a7.5 7.5 0 007.5-7.5v-9a7.5 7.5 0 00-7.5-7.5zm5.25 16.5a5.256 5.256 0 01-5.25 5.25h-9a5.256 5.256 0 01-5.25-5.25v-9a5.256 5.256 0 015.25-5.25h9a5.256 5.256 0 015.25 5.25v9z"
            fill="#FFC107" />
        <path
            d="M12.236 6.515a6 6 0 100 12 6 6 0 000-12zm0 9.75a3.755 3.755 0 01-3.75-3.75 3.754 3.754 0 013.75-3.75 3.754 3.754 0 013.75 3.75 3.755 3.755 0 01-3.75 3.75z"
            fill="#FFC107" />
        <path d="M18.686 6.864a.8.8 0 100-1.599.8.8 0 000 1.599z" fill="#FFC107" />
    </g>
    
</svg>
